_site/assets/img/soccer.svg

<svg xmlns="http://www.w3.org/2000/svg" width="30" height="30" viewBox="0 0 30 30"><path fill="#C61F48" d="M28.811 10.512C26.818 4.371 21.123.469 15.006.469c-9.779 0-16.881 9.574-13.816 19.02C3.182 25.629 8.889 29.531 15 29.531c9.779 0 16.875-9.574 13.811-19.019zm-2.52 10.177l-5.525.68-1.043-1.459 1.975-6.1 1.693-.527 4.078 3.809a12.894 12.894 0 0 1-1.178 3.597zM2.555 17.08l4.066-3.803 1.693.527L10.3 19.88l-1.06 1.477-5.52-.68a11.834 11.834 0 0 1-1.165-3.597zM14.068 6.492V8.42l-5.033 3.65-1.846-.574-1.054-5.502a12.634 12.634 0 0 1 3.047-2.215l4.886 2.713zm8.754 5.004l-1.846.574-5.033-3.65V6.492l4.898-2.719c1.119.586 2.15 1.33 3.047 2.221l-1.066 5.502zm-12.621 2.051l4.805-3.486 4.811 3.492-1.822 5.625h-5.953l-1.841-5.631zm17.444 1.142l-2.994-2.795.779-4.002c2.021 2.977 2.185 5.696 2.215 6.797zM18.586 2.883l-3.58 1.986-3.574-1.98c4.189-1.243 7.148-.006 7.154-.006zM4.588 7.857l.773 4.037-2.994 2.783c.047-1.863.51-3.715 1.383-5.426.246-.485.533-.948.838-1.394zm.439 14.883l4.025.492 1.711 3.674a12.578 12.578 0 0 1-5.736-4.166zm8.08 4.764l-2.35-5.039 1.02-1.418h6.457l1.014 1.418-2.35 5.039c-1.33.205-2.484.199-3.791 0zm6.141-.598l1.711-3.674 4.043-.498a12.514 12.514 0 0 1-5.754 4.172z"/></svg>

<?xml version="1.0" encoding="utf-8"?>
<!-- Generator: Adobe Illustrator 16.0.4, SVG Export Plug-In . SVG Version: 6.00 Build 0)  -->
<!DOCTYPE svg PUBLIC "-//W3C//DTD SVG 1.1//EN" "http://www.w3.org/Graphics/SVG/1.1/DTD/svg11.dtd">
<svg version="1.1" id="Layer_1" xmlns="http://www.w3.org/2000/svg" xmlns:xlink="http://www.w3.org/1999/xlink" x="0px" y="0px"
	 width="30px" height="30px" viewBox="0 0 30 30" enable-background="new 0 0 30 30" xml:space="preserve">
<path fill="#C61F48" d="M28.811,10.512C26.818,4.371,21.123,0.469,15.006,0.469c-9.779,0-16.881,9.574-13.816,19.02
	C3.182,25.629,8.889,29.531,15,29.531C24.779,29.531,31.875,19.957,28.811,10.512z M26.291,20.689l-5.525,0.68l-1.043-1.459
	l1.975-6.1l1.693-0.527l4.078,3.809C27.258,18.328,26.865,19.541,26.291,20.689z M2.555,17.08l4.066-3.803l1.693,0.527l1.986,6.076
	L9.24,21.357l-5.52-0.68C2.959,19.154,2.713,18.029,2.555,17.08z M14.068,6.492V8.42l-5.033,3.65l-1.846-0.574L6.135,5.994
	c0.896-0.885,1.922-1.629,3.047-2.215L14.068,6.492z M22.822,11.496l-1.846,0.574l-5.033-3.65V6.492l4.898-2.719
	c1.119,0.586,2.15,1.33,3.047,2.221L22.822,11.496z M10.201,13.547l4.805-3.486l4.811,3.492l-1.822,5.625h-5.953L10.201,13.547z
	 M27.645,14.689l-2.994-2.795l0.779-4.002C27.451,10.869,27.615,13.588,27.645,14.689z M18.586,2.883l-3.58,1.986l-3.574-1.98
	C15.621,1.646,18.58,2.883,18.586,2.883z M4.588,7.857l0.773,4.037l-2.994,2.783c0.047-1.863,0.51-3.715,1.383-5.426
	C3.996,8.766,4.283,8.303,4.588,7.857z M5.027,22.74l4.025,0.492l1.711,3.674C8.49,26.098,6.504,24.65,5.027,22.74z M13.107,27.504
	l-2.35-5.039l1.02-1.418h6.457l1.014,1.418l-2.35,5.039C15.568,27.709,14.414,27.703,13.107,27.504z M19.248,26.906l1.711-3.674
	l4.043-0.498C23.537,24.645,21.557,26.08,19.248,26.906z"/>
</svg>
